Origami/32x32/apps/appcode.svg

<svg width="32" height="32" version="1" xmlns="http://www.w3.org/2000/svg">
 <path d="m3.400391 31c-0.7756 0-1.4003906-0.624791-1.4003906-1.400391v-1c0 0.7756 0.6247906 1.400391 1.4003906 1.400391h25.199218c0.7756 0 1.400391-0.624791 1.400391-1.400391v1c0 0.7756-0.624791 1.400391-1.400391 1.400391h-12.599609z" style="opacity:.2"/>
 <path d="m16 2h-12.6c-0.7756 0-1.4 0.6244-1.4 1.4v12.6h14z" style="fill:#14ddb1"/>
 <path d="m16 2h12.6c0.7756 0 1.4 0.6244 1.4 1.4v12.6h-14z" style="fill:#2086e7"/>
 <path d="m16 30h-12.6c-0.7756 0-1.4-0.6244-1.4-1.4v-12.6h14z" style="fill:#2086e7"/>
 <path d="m16 30h12.6c0.7756 0 1.4-0.6244 1.4-1.4v-12.6h-14z" style="fill:#14ddb1"/>
 <path d="M 3.4003906 2 C 2.6247906 2 2 2.6247906 2 3.4003906 L 2 4.4003906 C 2 3.6247906 2.6247906 3 3.4003906 3 L 16 3 L 28.599609 3 C 29.375209 3 30 3.6247906 30 4.4003906 L 30 3.4003906 C 30 2.6247906 29.375209 2 28.599609 2 L 16 2 L 3.4003906 2 z" style="fill:#ffffff;opacity:.2"/>
 <rect x="6" y="6" width="20" height="20" style="fill:#3f3f3f"/>
 <path d="m21.000242 16.999658s0 1.000003-2 1.000003c-1.999999 0-1.999999-2.000001-1.999999-4.000003 0-1.999997 0-3.999998 1.999999-3.999998 2 0 2 0.999998 2 0.999998" style="fill:none;opacity:.2;stroke-linecap:round;stroke-linejoin:bevel;stroke-width:1.9999999;stroke:#000000"/>
 <path d="m21.000242 15.999758s0 1.000003-2 1.000003c-1.999999 0-1.999999-2.000001-1.999999-4.000003 0-1.999997 0-3.999998 1.999999-3.999998 2 0 2 0.999998 2 0.999998" style="fill:none;stroke-linecap:round;stroke-linejoin:bevel;stroke-width:1.9999999;stroke:#ffffff"/>
 <path d="m9.0002425 14.999658h3.9999995m-3.9998995 3v-6m3.9998995 6v-6m-3.9999995 0s0-2.000001 1.9999995-2.000001c2 0 2 2.000001 2 2.000001" style="fill:none;opacity:.2;stroke-linecap:round;stroke-linejoin:bevel;stroke-width:1.9999999;stroke:#000000"/>
 <path d="m9.0002425 13.999758h3.9999995m-3.9998995 3v-6m3.9998995 6v-6m-3.9999995 0s0-2.000001 1.9999995-2.000001c2 0 2 2.000001 2 2.000001" style="fill:none;stroke-linecap:round;stroke-linejoin:bevel;stroke-width:1.9999999;stroke:#ffffff"/>
 <path d="m9.0002425 23.9999h7.9999995" style="fill:none;opacity:.2;stroke-linecap:round;stroke-width:2;stroke:#000000"/>
 <path d="m9.0002425 23h7.9999995" style="fill:none;stroke-linecap:round;stroke-width:2;stroke:#ffffff"/>
</svg>

<svg xmlns="http://www.w3.org/2000/svg" width="32" height="32" version="1">
 <path style="opacity:0.2" d="m 3.400391,31 c -0.7756,0 -1.4003906,-0.624791 -1.4003906,-1.400391 v -1 C 2.0000004,29.375209 2.624791,30 3.400391,30 H 16 28.599609 C 29.375209,30 30,29.375209 30,28.599609 v 1 C 30,30.375209 29.375209,31 28.599609,31 H 16 Z"/>
 <path style="fill:#14ddb1" d="M 16,2 H 3.4 C 2.6244,2 2,2.6244 2,3.4 V 16 h 14 z"/>
 <path style="fill:#2086e7" d="M 16,2 H 28.6 C 29.3756,2 30,2.6244 30,3.4 V 16 H 16 Z"/>
 <path style="fill:#2086e7" d="M 16,30 H 3.4 C 2.6244,30 2,29.3756 2,28.6 V 16 h 14 z"/>
 <path style="fill:#14ddb1" d="M 16,30 H 28.6 C 29.3756,30 30,29.3756 30,28.6 V 16 H 16 Z"/>
 <path style="fill:#ffffff;opacity:0.2" d="M 3.4003906 2 C 2.6247906 2 2 2.6247906 2 3.4003906 L 2 4.4003906 C 2 3.6247906 2.6247906 3 3.4003906 3 L 16 3 L 28.599609 3 C 29.375209 3 30 3.6247906 30 4.4003906 L 30 3.4003906 C 30 2.6247906 29.375209 2 28.599609 2 L 16 2 L 3.4003906 2 z"/>
 <rect style="fill:#3f3f3f" width="20" height="20" x="6" y="6"/>
 <path style="opacity:0.2;fill:none;stroke:#000000;stroke-width:1.99999988;stroke-linecap:round;stroke-linejoin:bevel" d="m 21.000242,16.999658 c 0,0 0,1.000003 -2,1.000003 -1.999999,0 -1.999999,-2.000001 -1.999999,-4.000003 0,-1.999997 0,-3.999998 1.999999,-3.999998 2,0 2,0.999998 2,0.999998"/>
 <path style="fill:none;stroke:#ffffff;stroke-width:1.99999988;stroke-linecap:round;stroke-linejoin:bevel" d="m 21.000242,15.999758 c 0,0 0,1.000003 -2,1.000003 -1.999999,0 -1.999999,-2.000001 -1.999999,-4.000003 0,-1.999997 0,-3.999998 1.999999,-3.999998 2,0 2,0.999998 2,0.999998"/>
 <path style="opacity:0.2;fill:none;stroke:#000000;stroke-width:1.99999988;stroke-linecap:round;stroke-linejoin:bevel" d="m 9.0002425,14.999658 h 3.9999995 m -3.9998995,3 v -6 m 3.9998995,6 v -6 m -3.9999995,0 c 0,0 0,-2.000001 1.9999995,-2.000001 2,0 2,2.000001 2,2.000001"/>
 <path style="fill:none;stroke:#ffffff;stroke-width:1.99999988;stroke-linecap:round;stroke-linejoin:bevel" d="m 9.0002425,13.999758 h 3.9999995 m -3.9998995,3 v -6 m 3.9998995,6 v -6 m -3.9999995,0 c 0,0 0,-2.000001 1.9999995,-2.000001 2,0 2,2.000001 2,2.000001"/>
 <path style="opacity:0.2;fill:none;stroke:#000000;stroke-width:2;stroke-linecap:round" d="M 9.0002425,23.9999 H 17.000242"/>
 <path style="fill:none;stroke:#ffffff;stroke-width:2;stroke-linecap:round" d="M 9.0002425,23 H 17.000242"/>
</svg>
